packages/calcite-ui-icons/icons/dashboard-graph-16.svg

<?xml version="1.0" encoding="UTF-8"?><svg id="icons" xmlns="http://www.w3.org/2000/svg" viewBox="0 0 16 16"><defs><style>.cls-1{fill:none;}</style></defs><path d="M0,1v14h16V1H0ZM15,14H1V5h14v9ZM15,4h-1v-1h-1v1H1v-2h14v2ZM10,7v6h3v-6h-3ZM12,12h-1v-4h1v4ZM6,13h3v-7h-3v7ZM7,7h1v5h-1v-5ZM2,13h3v-4h-3v4ZM3,10h1v2h-1v-2Z"/><rect class="cls-1" width="16" height="16"/></svg>

<svg xmlns="http://www.w3.org/2000/svg" viewBox="0 0 16 16"><path d="M0 1v14h16V1H0zm15 13H1V5h14v9zm0-10h-1V3h-1v1H1V2h14v2zm-5 3v6h3V7h-3zm2 5h-1V8h1v4zm-6 1h3V6H6v7zm1-6h1v5H7V7zm-5 6h3V9H2v4zm1-3h1v2H3v-2z"/><path fill="none" d="M0 0h16v16H0z"/></svg>
